app/static/icons/gym.svg

<svg xmlns="http://www.w3.org/2000/svg" viewBox="0 0 27.69 15.91"><title>gym</title><path d="M8,15.91H3.73a.5.5,0,0,1-.5-.5V.5a.5.5,0,0,1,.5-.5H8a.5.5,0,0,1,.5.5V15.41A.5.5,0,0,1,8,15.91Zm-3.76-1H7.49V1H4.23Z"/><path d="M3.73,13.9H.5a.5.5,0,0,1-.5-.5V2.51A.5.5,0,0,1,.5,2H3.73a.51.51,0,0,1,.5.5V13.4A.5.5,0,0,1,3.73,13.9ZM1,12.9H3.23V3H1Z"/><path d="M27.19,13.9H24a.5.5,0,0,1-.5-.5V2.51A.5.5,0,0,1,24,2h3.22a.5.5,0,0,1,.5.5V13.4A.5.5,0,0,1,27.19,13.9Zm-2.72-1h2.22V3H24.47Z"/><path d="M24,15.91H19.71a.5.5,0,0,1-.5-.5V.5a.5.5,0,0,1,.5-.5H24a.5.5,0,0,1,.5.5V15.41A.5.5,0,0,1,24,15.91Zm-3.76-1h3.26V1H20.21Z"/><path d="M19.71,10.23H8a.5.5,0,0,1-.5-.5V6.18a.5.5,0,0,1,.5-.5H19.71a.51.51,0,0,1,.5.5V9.73A.5.5,0,0,1,19.71,10.23Zm-11.22-1H19.21V6.68H8.49Z"/></svg>

<?xml version="1.0" encoding="utf-8"?>
<!-- Generator: Adobe Illustrator 22.1.0, SVG Export Plug-In . SVG Version: 6.00 Build 0)  -->
<svg version="1.1" id="Outline_Old_Icons" xmlns="http://www.w3.org/2000/svg" xmlns:xlink="http://www.w3.org/1999/xlink" x="0px"
	 y="0px" viewBox="0 0 27.7 15.9" style="enable-background:new 0 0 27.7 15.9;" xml:space="preserve">
<g>
	<g>
		<path d="M8,15.9H3.7c-0.3,0-0.5-0.2-0.5-0.5V0.5C3.2,0.2,3.4,0,3.7,0H8c0.3,0,0.5,0.2,0.5,0.5v14.9C8.5,15.7,8.3,15.9,8,15.9z
			 M4.2,14.9h3.3V1H4.2V14.9z"/>
	</g>
	<g>
		<path d="M3.7,13.9H0.5c-0.3,0-0.5-0.2-0.5-0.5V2.5C0,2.2,0.2,2,0.5,2h3.2C4,2,4.2,2.2,4.2,2.5v10.9C4.2,13.7,4,13.9,3.7,13.9z
			 M1,12.9h2.2V3H1V12.9z"/>
	</g>
	<g>
		<path d="M27.2,13.9H24c-0.3,0-0.5-0.2-0.5-0.5V2.5C23.5,2.2,23.7,2,24,2h3.2c0.3,0,0.5,0.2,0.5,0.5v10.9
			C27.7,13.7,27.5,13.9,27.2,13.9z M24.5,12.9h2.2V3h-2.2V12.9z"/>
	</g>
	<g>
		<path d="M24,15.9h-4.3c-0.3,0-0.5-0.2-0.5-0.5V0.5c0-0.3,0.2-0.5,0.5-0.5H24c0.3,0,0.5,0.2,0.5,0.5v14.9
			C24.5,15.7,24.2,15.9,24,15.9z M20.2,14.9h3.3V1h-3.3V14.9z"/>
	</g>
	<g>
		<path d="M19.7,10.2H8c-0.3,0-0.5-0.2-0.5-0.5V6.2c0-0.3,0.2-0.5,0.5-0.5h11.7c0.3,0,0.5,0.2,0.5,0.5v3.6
			C20.2,10,20,10.2,19.7,10.2z M8.5,9.2h10.7V6.7H8.5V9.2z"/>
	</g>
</g>
</svg>
